X:224
T:Breton 1
C:Will Lynch
R:jig
M:6/8
L:1/8
K:Edor
g2e f2d | eBB- B2A | ABd edc | B2e e2f |
g2e f2d | eBB- B3 | BAG AGF |1 E3 E2f :| D2E E3 |:
g2e f2d | g2e B3 | g2e f2d | e2b- b3 |
g2e f2d | g2e f2d | gfg efg | f2d e3 :|
